(
postln("B");
e[\compoundrumble].play;

9.wait;

e[\baseelevensinegrains].play;

4.wait;

e[\baseelevensinegrains].play;
e[\baseelevensinegrains].set(\atk, Pwhite(0.05, 0.1, (500..600).choose));
e[\baseelevensinegrains].set(\rel, Pwhite(0.3, 0.5, (500..600).choose));
)
