(
postln("B");
e[\compoundrumble].play;

11.wait;

e[\birddrones].play;

7.wait;

e[\birddrones].play;

5.wait;

e[\birddrones].play;

e[\baseelevensinegrains].play;

3.wait;

e[\birddrones].play;

2.wait;

e[\baseelevensinegrains].play;
e[\baseelevensinegrains].set(\atk, Pwhite(0.05, 0.1, (500..600).choose));
e[\baseelevensinegrains].set(\rel, Pwhite(0.3, 0.5, (500..600).choose));

4.wait;

e[\baseelevendrones].play;

7.wait;

e[\baseelevensinegrains].play;
)
