(
postln("D");

e[\basethirteenpattern1].play;
e[\basethirteenpattern2].play;
e[\basethirteenpattern3].play;
e[\basethirteenpattern4].play;

4.wait;

e[\basethirteenpattern5].play;

1.wait;

e[\basethirteenpattern6].play;

2.wait;

e[\basethirteenpattern7].play;

1.wait;

e[\basethirteenpattern8].play;

)
